X: 41
T: Shandan hong hua kai
L: 1/16
M: 2/4
K: A
B2 e2 B c B A [I:setbarnb 1]| 
B A F2E4 | 
e2> f2 e d B d | 
e8 | 
e2> f2 e d B d | 
e8 | 
B2 e2 B c B A | 
B A F2E4 | 
B4A2 F2 | 
B2 B A F2 E2 | 
F2 F2 A B A F | 
E8 |]

@@@ Tune index: 8709
